X: 26
T: No_128_Song_of_the_Loons.krn
N: Derived from No_128_Song_of_the_Loons.krn
%%abc-version 2.0
%%abcx-abcm2ps-target-version 5.9.1 (29 Sep 2008)
%%abc-creator hum2abc beta
%%abcx-conversion-date 2019/03/15 08:29:13
%%humdrum-veritas 778323709
%%humdrum-veritas-data 3195794887
%%linebreak <none>
%%barnumbers 0
L: 1/8
M: 2/4
%%staves {1 2}
V: 1 clef=bass
V: 2 clef=bass
K: Bb
[V:1] [K:clef=bass][M:2/4]F2F3/D/ | 
[V:2] [K:clef=bass][M:2/4]z4 | 
[V:1] F2F3/G/ | 
[V:2] (3!accent!G,, z G,, (3!accent!G,, z G,, | 
[V:1] F2F/D3/ ||  
[V:2] z4 ||  
[V:1] [M:3/4]B,2B,3B, ||  
[V:2] [M:3/4]z6 ||  
[V:1] [M:2/4]B,4- | 
[V:2] [M:2/4]z4 | 
[V:1] B,2D3/D/ | 
[V:2] z4 | 
[V:1] F2(3(D/B,)C | 
[V:2] z4 | 
[V:1] B,2B,3/D/ | 
[V:2] z4 | 
[V:1] B,2B,3/G,/ | 
[V:2] z4 | 
[V:1] B,2B,3/B,/ | 
[V:2] z4 | 
[V:1] B,2B,/G,3/ | 
[V:2] z4 | 
[V:1] F,2F,3/F,/ | 
[V:2] z4 | 
[V:1] F,2F,3/D,/ | 
[V:2] z4 | 
[V:1] F,2F,3/F,/ | 
[V:2] z4 | 
[V:1] F,2F,/D,3/ | 
[V:2] z4 | 
[V:1] B,,3/B,,/B,,2- | 
[V:2] z4 | 
[V:1] B,,4 |]  
[V:2] z4 |]  



